Origami/48x48/apps/winefile.svg

<svg width="48" height="48" version="1" xmlns="http://www.w3.org/2000/svg">
 <rect x="6" y="4" width="36" height="24" rx="1.5" ry="1.5" style="fill:#5294e2"/>
 <rect x="6" y="7" width="36" height="24" rx="1.5" ry="1.5" style="opacity:.1"/>
 <rect x="6" y="8" width="36" height="24" rx="1.5" ry="1.5" style="fill:#89e058"/>
 <rect x="6" y="11" width="36" height="24" rx="1.5" ry="1.5" style="opacity:.1"/>
 <rect x="6" y="12" width="36" height="24" rx="1.5" ry="1.5" style="fill:#ffcd54"/>
 <rect x="4" y="17" width="40" height="28" rx="2" ry="2" style="opacity:.2"/>
 <rect x="4" y="16" width="40" height="28" rx="2" ry="2" style="fill:#8e8e8e"/>
 <rect x="17" y="28" width="14" height="4" rx="1" ry="1" style="opacity:.2"/>
 <rect x="17" y="27" width="14" height="4" rx="1" ry="1" style="fill:#ececec"/>
 <path d="m7.5 4c-0.831 0-1.5 0.669-1.5 1.5v1c0-0.831 0.669-1.5 1.5-1.5h33c0.831 0 1.5 0.669 1.5 1.5v-1c0-0.831-0.669-1.5-1.5-1.5h-33z" style="fill:#ffffff;opacity:.1"/>
 <path d="m7.5 8c-0.831 0-1.5 0.669-1.5 1.5v1c0-0.831 0.669-1.5 1.5-1.5h33c0.831 0 1.5 0.669 1.5 1.5v-1c0-0.831-0.669-1.5-1.5-1.5z" style="fill:#ffffff;opacity:.1"/>
 <path d="m7.5 12c-0.831 0-1.5 0.669-1.5 1.5v1c0-0.831 0.669-1.5 1.5-1.5h33c0.831 0 1.5 0.669 1.5 1.5v-1c0-0.831-0.669-1.5-1.5-1.5z" style="fill:#ffffff;opacity:.1"/>
 <circle cx="36" cy="36" r="12" style="opacity:.2"/>
 <circle cx="36" cy="35" r="12" style="fill:#48aeff"/>
 <rect x="30" y="29" width="5" height="5" rx=".5" ry=".5" style="fill:#ffffff"/>
 <rect x="37" y="29" width="5" height="5" rx=".5" ry=".5" style="fill:#ffffff"/>
 <rect x="37" y="36" width="5" height="5" rx=".5" ry=".5" style="fill:#ffffff"/>
 <rect x="30" y="36" width="5" height="5" rx=".5" ry=".5" style="fill:#ffffff"/>
</svg>

<svg xmlns="http://www.w3.org/2000/svg" width="48" height="48" version="1">
 <rect style="fill:#5294e2" width="36" height="24" x="6" y="4" rx="1.5" ry="1.5"/>
 <rect style="opacity:0.1" width="36" height="24" x="6" y="7" rx="1.5" ry="1.5"/>
 <rect style="fill:#89e058" width="36" height="24" x="6" y="8" rx="1.5" ry="1.5"/>
 <rect style="opacity:0.1" width="36" height="24" x="6" y="11" rx="1.5" ry="1.5"/>
 <rect style="fill:#ffcd54" width="36" height="24" x="6" y="12" rx="1.5" ry="1.5"/>
 <rect style="opacity:0.2" width="40" height="28" x="4" y="17" rx="2" ry="2"/>
 <rect style="fill:#8e8e8e" width="40" height="28" x="4" y="16" rx="2" ry="2"/>
 <rect style="opacity:0.2" width="14" height="4" x="17" y="28" rx="1" ry="1"/>
 <rect style="fill:#ececec" width="14" height="4" x="17" y="27" rx="1" ry="1"/>
 <path style="fill:#ffffff;opacity:0.1" d="M 7.5 4 C 6.669 4 6 4.669 6 5.5 L 6 6.5 C 6 5.669 6.669 5 7.5 5 L 40.5 5 C 41.331 5 42 5.669 42 6.5 L 42 5.5 C 42 4.669 41.331 4 40.5 4 L 7.5 4 z"/>
 <path style="opacity:0.1;fill:#ffffff" d="M 7.5,8 C 6.669,8 6,8.669 6,9.5 V 10.5 C 6,9.669 6.669,9 7.5,9 H 40.5 C 41.331,9 42,9.669 42,10.5 V 9.5 C 42,8.669 41.331,8 40.5,8 Z"/>
 <path style="opacity:0.1;fill:#ffffff" d="M 7.5,12 C 6.669,12 6,12.669 6,13.5 V 14.5 C 6,13.669 6.669,13 7.5,13 H 40.5 C 41.331,13 42,13.669 42,14.5 V 13.5 C 42,12.669 41.331,12 40.5,12 Z"/>
 <g>
  <circle style="opacity:0.2" cx="36" cy="36" r="12"/>
  <circle style="fill:#48aeff" cx="36" cy="35" r="12"/>
  <rect style="fill:#ffffff" width="5" height="5" x="30" y="29" rx=".5" ry=".5"/>
  <rect style="fill:#ffffff" width="5" height="5" x="37" y="29" rx=".5" ry=".5"/>
  <rect style="fill:#ffffff" width="5" height="5" x="37" y="36" rx=".5" ry=".5"/>
  <rect style="fill:#ffffff" width="5" height="5" x="30" y="36" rx=".5" ry=".5"/>
 </g>
</svg>
